icons/svg/language-python-text.svg

﻿<?xml version="1.0" encoding="utf-8"?>
<!DOCTYPE svg PUBLIC "-//W3C//DTD SVG 1.1//EN" "http://www.w3.org/Graphics/SVG/1.1/DTD/svg11.dtd">
<svg xmlns="http://www.w3.org/2000/svg" xmlns:xlink="http://www.w3.org/1999/xlink" version="1.1" baseProfile="full" width="24" height="24" viewBox="0 0 24.00 24.00" enable-background="new 0 0 24.00 24.00" xml:space="preserve">
	<path fill="#000000" fill-opacity="1" stroke-width="0.2" stroke-linejoin="round" d="M 2,5.6896C 8.92303,1.07425 11.095,7.01179 11.276,10.2697C 11.457,13.5276 8.28954,17.6352 4.30768,14.9203L 4.30768,20.3049L 2,18.7664L 2,5.6896 Z M 4.2172,7.39647L 4.2172,12.7809C 7.83709,14.9529 9.08137,13.1656 9.08137,10.0887C 9.08137,5.74484 6.57012,5.58652 4.2172,7.39647 Z M 15.0768,4.15115C 15.0768,4.15115 14.8958,7.63509 15.0768,11.074C 15.4388,14.5129 19.6922,11.8433 19.6922,11.8433L 19.6922,4.92038L 22,5.20186L 22,14.4439C 22,20.5977 15.8461,20.3049 15.8461,20.3049L 15.0767,17.9972C 20.4614,17.9972 19.7827,14.4326 19.7827,14.4326C 13.2669,16.9665 12.7692,12.6126 12.7692,12.6126L 12.7692,5.6896L 15.0768,4.15115 Z "/>
</svg>

<svg xmlns="http://www.w3.org/2000/svg" version="1.1" baseProfile="full" width="24" height="24" viewBox="0 0 24.00 24.00" xml:space="preserve"><path fill="#000" fill-opacity="1" stroke-width=".2" stroke-linejoin="round" d="M2 5.69c6.923-4.616 9.095 1.322 9.276 4.58.18 3.258-2.986 7.365-6.968 4.65v5.385L2 18.765V5.69zm2.217 1.706v5.385c3.62 2.173 4.864.386 4.864-2.69 0-4.345-2.51-4.503-4.863-2.694zm10.86-3.245s-.18 3.485 0 6.924c.362 3.44 4.615.77 4.615.77V4.92L22 5.202v9.242c0 6.154-6.154 5.86-6.154 5.86l-.77-2.307c5.385 0 4.707-3.564 4.707-3.564-6.516 2.534-7.014-1.82-7.014-1.82V5.69l2.307-1.54z"/></svg>
